X:1
T: Paddy Whack
P:O'Neill's Version 
R:Jig
Q:180
K:G
M:6/8
L:1/16
c2|B2G2B2 c2d2e2|d2B2G2 A4G2|G2B2d2 e2f2g2|f2d2d2 d2e2f2|g2b2g2 a2f2d2|c2d2e2 d2B2G2|G2A2B2 c2A2d2|B2G2G2 G4c2|
B2G2B2 c2d2e2|d2B2G2 A4G2|G2B2d2 e2f2g2|f2d2d2 d2e2f2|g2b2g2 a2f2d2|c2d2e2 d2B2G2|G2A2B2 c2A2d2|B2G2G2 G4B2|
G2B2d2 g2f2g2|e2d2c2 B2A2G2|G2B2d2 e2f2g2|f2d2d2 d2e2f2|G2B2d2 g2f2g2|e2d2c2 B2A2G2|G2A2B2 c2A2d2|B2G2G2 G4B2|
G2B2d2 g2f2g2|e2d2c2 B2A2G2|G2B2d2 e2f2g2|f2d2d2 d2e2f2|g2b2g2 a2f2d2|c2d2e2 d2B2G2|G2A2B2 c2A2d2|B2G2G2 G4||
